symbols/web/bloodtype/materialsymbolsoutlined/bloodtype_wght500gradN25fill1_20px.svg

<svg xmlns="http://www.w3.org/2000/svg" height="20" width="20"><path d="M7.542 14.854h4.896v-1.646H7.542Zm1.646-2.416h1.645v-1.605h1.605V9.188h-1.605V7.542H9.188v1.646H7.542v1.645h1.646ZM10 18.396q-2.667 0-4.698-1.875-2.031-1.875-2.031-5.042 0-2.062 1.687-4.562Q6.646 4.417 10 1.542q3.354 2.875 5.042 5.375 1.687 2.5 1.687 4.562 0 3.167-2.042 5.042-2.041 1.875-4.687 1.875Z"/></svg>

<svg xmlns="http://www.w3.org/2000/svg" height="20" width="20"><path d="M7.542 14.854H12.438V13.208H7.542ZM9.188 12.438H10.833V10.833H12.438V9.188H10.833V7.542H9.188V9.188H7.542V10.833H9.188ZM10 18.396Q7.333 18.396 5.302 16.521Q3.271 14.646 3.271 11.479Q3.271 9.417 4.958 6.917Q6.646 4.417 10 1.542Q13.354 4.417 15.042 6.917Q16.729 9.417 16.729 11.479Q16.729 14.646 14.687 16.521Q12.646 18.396 10 18.396Z"/></svg>
